16x16/mimetypes/mail.svg

<svg height="16" width="16" xmlns="http://www.w3.org/2000/svg"><path d="m2 3v10h12v-10zm1.688 1h8.624l-3.25 3.25-.718.719-.344.343-.344-.343-.718-.719zm-.688.688 3.219 3.218-3.219 2.75v-5.969zm10 0v5.968l-3.219-2.75 3.219-3.219zm-6.094 3.906.75.75.344.375.344-.375.75-.75 3.906 3.344v.061h-10v-.062z" fill="#1d99f3"/></svg>

<svg xmlns="http://www.w3.org/2000/svg" width="16" height="16"><path style="text-indent:0;text-align:start;line-height:normal;text-transform:none;block-progression:tb;marker:none;-inkscape-font-specification:Sans" d="M2 3v10h12V3H2zm1.688 1h8.624l-3.25 3.25-.718.719L8 8.312l-.344-.343-.718-.719L3.688 4zM3 4.688l3.219 3.218L3 10.656V4.687zm10 0v5.968l-3.219-2.75L13 4.687zM6.906 8.594l.75.75.344.375.344-.375.75-.75L13 11.938v.061H3v-.062l3.906-3.343z" font-weight="400" color="#000" fill="#1d99f3" overflow="visible" font-family="Sans"/></svg>
